!!!OTL: Von der Wanderschaft ... (1-50), S. 124
!!!id: K1096
**kern
*clefG2
*k[]
*C:
{8e
8f
=1
4.g
8a
8g
8f#
=2
4g}
4r
=3
{8e
8g
=4
4cc
4dd
8cc
8b
=5
2a}
4r
=6
{8cc
8cc
8b
8b
8a
8a
=7
2g}
=8
{8g
8cc
=9
4ee
4dd
8a
8b
=10
2cc}
4r
=11
{8cc
8cc
8b
8b
8a
8a
=12
2g}
=13
{8g
8cc
=14
4ee
4dd
8a
8b
=15
2cc}
==
*-
!!!minrhy: 8
!!!meters: 3/4 ]  ZZ[6
!!!cut: Von der Wanderschaft ... (1-50), S. 124
!!!reg: Luxemburg
!!!trd: KINTZELE, Guillaume: An der Ucht, Bd. 1, Luxemburg 1926
!!!rhy1: XX  X_.XXX  X_0_
!!!rhy2: XX  X_X_XX  X__0_
!!!key: K1096  08  C 3/4 ]  ZZ[6
!!!mod: ACHTTONSKALA DUR ?]  AMBITUS[8
!!!kad: 565+15+1
!!!akz: 55_+16_+15_+3+1_+15_+3+1_
!!!fot: 'a__b__c__bs"c__bs"
!!!for: 'a__b__c__b__c__bv_
!!!fok: '/__^a_\__~a_\__~a_
!! PHRAS[VORWIEGEND AUFTAKTIG]
!!!fkt: R&uuml;chkehr, Tod der Braut
!!!bem: in der Quelle mit einer 2. Stimme versehen
!! KINTZELE
!! PR[38] 2K[2] 2G[15] 3K[2] 3G[4] 4A[4] 4Ü[0] 5A[0] 6K[0] 6G[0]
!! 7K[0] 7G[0] 8A[0] MEHR[0] SI[27] ABS[81] SR[17] SP[10]
!! ST[24] 2k[5] 2g[22] 3k[4] 3g[2] 4d[1] 4ü[0] 5d[0] 6k[0] 6g[0]
!! 7k[0] 7g[0] 8d[0] mehr[0] si[35] dm[-8] sr[27] sp[7]
!! 1F[53] 2F[40] 3F[0] 4F[0] LF[0] 2P[6] 3P[0] 4P[0] TRI[0] DF[3] AB[94]
!! TF[0] U3K[0] U3[0] U4[0] U4Ü[0] U5[0] U6K[0] U6[0] U7K[0] U7[0]
!! N1[0] N2K[0] N2[0] N3K[0] N3[7] N4[6] N4Ü[0] N5[26] N6K[0] N6[17]
!!!n7k: 0] N7[12] O1[20] O2K[0] O2[10] O3K[0] O3[2] HÖ[0
!!!RNB: symbol: &uuml;  = u umlaut (UTF-8: Ã¼)
